resources/haticons/SVG/pandora.svg

<!-- Generated by IcoMoon.io -->
<svg version="1.1" xmlns="http://www.w3.org/2000/svg" width="24" height="24" viewBox="0 0 24 24">
<title>pandora</title>
<path fill="#005483" d="M19.051 0h-14.102c-2.699 0-4.949 2.221-4.949 4.95v14.101c0 2.699 2.22 4.949 4.949 4.949h14.102c2.728 0 4.949-2.221 4.949-4.949v-14.101c0-2.7-2.221-4.95-4.949-4.95zM12.375 15.811h-1.229v2.789c0 0.361-0.301 0.646-0.646 0.646h-3.854v-14.49h6.554c3.181 0 5.642 1.65 5.642 5.4 0 3.555-2.73 5.654-6.451 5.654z"></path>
</svg>

<svg xmlns="http://www.w3.org/2000/svg" width="24" height="24"><path fill="#005483" d="M19.051 0H4.949C2.25 0 0 2.221 0 4.95v14.101C0 21.75 2.22 24 4.949 24h14.102A4.956 4.956 0 0 0 24 19.051V4.95C24 2.25 21.779 0 19.051 0zm-6.676 15.811h-1.229V18.6a.65.65 0 0 1-.646.646H6.646V4.756H13.2c3.181 0 5.642 1.65 5.642 5.4 0 3.555-2.73 5.654-6.451 5.654z"/></svg>
